X:5997
T:Gan Ainm
R:Jig
S:
H:
N:
D:Milltown 1999 
Z:Adrian Scahill
M:6/8
L:1/8
K:G
FDD ADD|BAB c2A|Bcd ecA|ABG FED|\
FDD ADD|B3 c2A|Bcd ecA|AGF GAG|\
FDD ADD|BAB c2A|Bcd ecA|ABG FED|\
G3 AGA|BAB c2A|Bcd ecA|AGF G2D||\
GBd gdB|dBG c2A|Bcd ecA|ABG FED|\
GBd gdB|dBG c2A|Bcd ecA|AGF G2B|\
dBd gdB|dBG c2A|Bcd ecA|ABG FED|\
G3 AGA|BAB c2A|Bcd ecA|AGF G2D||
